X: 161
T: St Patricks day in the morning.
%R: jig
Z: 2017 John Chambers <jc:trillian.mit.edu>
B: John Treat - "Gamut for the Fifes", 1779, p.16 #1
F: https://archive.org/details/GamutFortheFifes
M: 6/8
L: 1/8
K: G
% - - - - - - - - - - - - - - - - - - - - - - - - -
|:\
GAG GAB | ded dBG | AGA BGE | EFG FED | GAG GAB | ded dBG | AGA BGE | G3 B3 :|
|:\
def g2e | f2d edB | GBe a2e | f3 de2 | def g2e | f2d efg | GAG GAB | dBg dBG |
AGA BGE | EFG FED | GAG GBc | ded dBG | AGA BAG | AGA BAG | E3 G3 :|
% - - - - - - - - - - - - - - - - - - - - - - - - -
